X: 1
T: While shepherds watched their flocks at night
C: Words by Nahum Tate & Nicholas Brody
C: Music by George Frederick Handel
M:4/4
K:C
L:1/4
Q:1/4=120
|: (E/F/) | "C" [EG] [Gc] "F" [BG][AF] | "C" [GE] (C/D/) [EC] ([E/C/][F/D/]) | "C" [EG] [EG] [EG] ([F/D/][E/C/]) |
w: While - shep-herds watched their flocks by - night,  All - seat-ed on the -
"G" [EC] [DB,] z ([B/G/][c/A/]) | "G" [dB] G "Dm" [FD] [FD] | "G7" [FB,] ([E/C/][D/B,/]) "C" [EC] ([c/A/][B/G/]) |
w: ground, - The - an-gel of the lord came - down, and -
"F" [AF] "C" [GE] "F" [FC] "C" [EC] | "F" [AF] "C" [GE] z [cG] | "C" [GE] [cC] "G7" [EC] ([D/B,/][C/C/]) | "C" C3 :|
w:  glo-ry shone a-round, - And glo-ry shone a--round.
W: "Fear not", he said, for mighty dread
W: Had seized their troubled minds,
W: "Glad tidings of great joy I bring
W: To you and all mankind,  To you and all mankind."
W:
W: From _The Reader's Digest Merry Christmas Songbook_, p. 182.

